usr/share/icons/biglinux-icons-material-dark/symbolic/status/slideshow-disabled-symbolic.svg

<svg width="16" height="16.001" version="1.1" xmlns="http://www.w3.org/2000/svg">
 <title>Gnome Symbolic Icon Theme</title>
 <path d="m3 1c-1.662 0-3 1.338-3 3v6c0 1.662 1.338 3 3 3h10c1.662 0 3-1.338 3-3v-6c0-1.662-1.338-3-3-3zm0 1h10c1.108 0 2 0.892 2 2v6c0 1.108-0.892 2-2 2h-10c-1.108 0-2-0.892-2-2v-6c0-1.108 0.892-2 2-2z" fill="#dedede" stroke-linecap="round" stroke-linejoin="round" stroke-width="1.0016"/>
 <rect x="4" y="14" width="8" height="1" rx=".5" ry=".5" fill="#dedede" stroke-linecap="round" stroke-linejoin="round" stroke-width="1.0016"/>
 <path d="m8 3a4 4 0 0 0-4 4 4 4 0 0 0 4 4 4 4 0 0 0 4-4 4 4 0 0 0-4-4zm-1.7676 1.7324c0.12781 0 0.25558 0.04855 0.35352 0.14648l1.4141 1.4141 1.4141-1.4141c0.19587-0.19587 0.51116-0.19587 0.70703 0 0.19587 0.19587 0.19587 0.51116 0 0.70703l-1.4141 1.4141 1.4141 1.4141c0.19587 0.19587 0.19587 0.51116 0 0.70703-0.19587 0.19587-0.51116 0.19587-0.70703 0l-1.4141-1.4141-1.4141 1.4141c-0.19587 0.19587-0.51116 0.19587-0.70703 0-0.19587-0.19587-0.19587-0.51116 0-0.70703l1.4141-1.4141-1.4141-1.4141c-0.19587-0.19587-0.19587-0.51116 0-0.70703 0.097934-0.097934 0.22571-0.14648 0.35352-0.14648z" fill="#dedede" stroke-linecap="round" stroke-linejoin="round" stroke-width="1.3333"/>
</svg>

<svg xmlns="http://www.w3.org/2000/svg" width="16" height="16.001">
<path fill="#363636" d="M3 1C1.338 1 0 2.338 0 4v6c0 1.662 1.338 3 3 3h10c1.662 0 3-1.338 3-3V4c0-1.662-1.338-3-3-3zm0 1h10c1.108 0 2 .892 2 2v6c0 1.108-.892 2-2 2H3c-1.108 0-2-.892-2-2V4c0-1.108.892-2 2-2"/>
<rect width="8" height="1" x="4" y="14" fill="#363636" rx=".5" ry=".5"/>
<path fill="#363636" d="M8 3a4 4 0 0 0-4 4 4 4 0 0 0 4 4 4 4 0 0 0 4-4 4 4 0 0 0-4-4M6.232 4.732a.5.5 0 0 1 .354.147L8 6.293l1.414-1.414a.499.499 0 1 1 .707.707L8.707 7l1.414 1.414a.499.499 0 1 1-.707.707L8 7.707 6.586 9.121a.499.499 0 1 1-.707-.707L7.293 7 5.879 5.586a.499.499 0 0 1 .353-.854"/>
</svg>
